static/fa/svgs/solid/face-tired.svg

<svg xmlns="http://www.w3.org/2000/svg" viewBox="0 0 512 512"><!--! Font Awesome Free 6.1.1 by @fontawesome - https://fontawesome.com License - https://fontawesome.com/license/free (Icons: CC BY 4.0, Fonts: SIL OFL 1.1, Code: MIT License) Copyright 2022 Fonticons, Inc.--><path d="M0 256C0 114.6 114.6 0 256 0s256 114.6 256 256-114.6 256-256 256S0 397.4 0 256zm138.3 108.1c-6.1 11.7-10.3 24.3-10.3 35.9 0 5.2 2.6 10.2 6.9 13.2 4.3 2.9 9.8 3.6 14.7.9l20.6-6.8c26.9-10.1 55.4-15.3 84.2-15.3h3.2c28.8 0 57.3 5.2 84.2 15.3l20.6 6.8c4.9 2.7 10.4 2 14.7-.9 4.3-3 6.9-8 6.9-13.2 0-11.6-4.2-24.2-10.3-35.9-6.3-12-15.3-24.3-26.4-35.4-22-22-53.9-41.6-91.3-41.6s-69.3 19.6-91.3 41.6c-11.1 11.1-20.1 23.4-26.4 35.4zm-4.8-217.4c-7.9-4.3-17.5 1.5-17.5 10.4 0 2.8.1 5.5 2.8 7.7l36 43.2-36 43.2c-2.7 2.2-2.8 4.9-2.8 7.7 0 8.9 9.6 14.7 17.5 10.4l89.9-47.9c10.7-5.7 10.7-21.1 0-26.8l-89.9-47.9zM396 157.1c0-8.9-9.6-14.7-17.5-10.4l-89.9 47.9c-10.7 5.7-10.7 21.1 0 26.8l89.9 47.9c7.9 4.3 17.5-1.5 17.5-10.4 0-2.8-1-5.5-2.8-7.7l-36-43.2 36-43.2c1.8-2.2 2.8-4.9 2.8-7.7z"/></svg>

<svg xmlns="http://www.w3.org/2000/svg" viewBox="0 0 512 512"><!--! Font Awesome Free 6.1.1 by @fontawesome - https://fontawesome.com License - https://fontawesome.com/license/free (Icons: CC BY 4.0, Fonts: SIL OFL 1.1, Code: MIT License) Copyright 2022 Fonticons, Inc. --><path d="M0 256C0 114.6 114.6 0 256 0C397.4 0 512 114.6 512 256C512 397.4 397.4 512 256 512C114.6 512 0 397.4 0 256zM138.3 364.1C132.2 375.8 128 388.4 128 400C128 405.2 130.6 410.2 134.9 413.2C139.2 416.1 144.7 416.8 149.6 414.1L170.2 407.3C197.1 397.2 225.6 392 254.4 392H257.6C286.4 392 314.9 397.2 341.8 407.3L362.4 414.1C367.3 416.8 372.8 416.1 377.1 413.2C381.4 410.2 384 405.2 384 400C384 388.4 379.8 375.8 373.7 364.1C367.4 352.1 358.4 339.8 347.3 328.7C325.3 306.7 293.4 287.1 256 287.1C218.6 287.1 186.7 306.7 164.7 328.7C153.6 339.8 144.6 352.1 138.3 364.1H138.3zM133.5 146.7C125.6 142.4 116 148.2 116 157.1C116 159.9 116.1 162.6 118.8 164.8L154.8 208L118.8 251.2C116.1 253.4 116 256.1 116 258.9C116 267.8 125.6 273.6 133.5 269.3L223.4 221.4C234.1 215.7 234.1 200.3 223.4 194.6L133.5 146.7zM396 157.1C396 148.2 386.4 142.4 378.5 146.7L288.6 194.6C277.9 200.3 277.9 215.7 288.6 221.4L378.5 269.3C386.4 273.6 396 267.8 396 258.9C396 256.1 395 253.4 393.2 251.2L357.2 208L393.2 164.8C395 162.6 396 159.9 396 157.1V157.1z"/></svg>
